src/svg/volume-mute.svg

<svg version="1.2" baseProfile="tiny" xmlns="http://www.w3.org/2000/svg" width="24" height="24" viewBox="0 0 24 24"><path d="M19.707 5.293c-.391-.391-1.023-.391-1.414 0l-1.551 1.551c-.345-.688-.987-1.02-1.604-1.02-.449 0-.905.152-1.356.453l-2.672 1.781c-.753.503-2.206.942-3.11.942-1.654 0-3 1.346-3 3v2c0 1.237.754 2.302 1.826 2.76l-1.533 1.533c-.391.391-.391 1.023 0 1.414.195.195.451.293.707.293s.512-.098.707-.293l2.527-2.527c.697.174 1.416.455 1.875.762l2.672 1.781c.451.301.907.453 1.356.453.898 0 1.863-.681 1.863-2.176v-8.586l2.707-2.707c.391-.391.391-1.023 0-1.414zm-4.816 2.648l.104-.062.005.121v1.293l-2 2v-2.091l1.891-1.261zm-7.891 4.059c0-.552.448-1 1-1 1.211 0 2.907-.495 4-1.146v2.439l-2.83 2.83c-.413-.077-.814-.123-1.17-.123-.552 0-1-.448-1-1v-2zm3.301 3.406l1.699-1.699v2.439c-.481-.287-1.075-.542-1.699-.74zm4.693 2.714l-.104-.062-1.89-1.26v-4.091l2-2v7.293l-.006.12z"/></svg>

<?xml version="1.0" encoding="iso-8859-1"?>
<!-- Generator: Adobe Illustrator 16.2.1, SVG Export Plug-In . SVG Version: 6.00 Build 0)  -->
<svg version="1.2" baseProfile="tiny" xmlns="http://www.w3.org/2000/svg" xmlns:xlink="http://www.w3.org/1999/xlink" x="0px"
	 y="0px" width="24px" height="24px" viewBox="0 0 24 24" xml:space="preserve">
<g id="Layer_1">
	<path d="M19.707,5.293c-0.391-0.391-1.023-0.391-1.414,0l-1.551,1.551c-0.345-0.688-0.987-1.02-1.604-1.02
		c-0.449,0-0.905,0.152-1.356,0.453l-2.672,1.781C10.357,8.561,8.904,9,8,9c-1.654,0-3,1.346-3,3v2c0,1.237,0.754,2.302,1.826,2.76
		l-1.533,1.533c-0.391,0.391-0.391,1.023,0,1.414C5.488,19.902,5.744,20,6,20s0.512-0.098,0.707-0.293l2.527-2.527
		c0.697,0.174,1.416,0.455,1.875,0.762l2.672,1.781c0.451,0.301,0.907,0.453,1.356,0.453C16.035,20.176,17,19.495,17,18V9.414
		l2.707-2.707C20.098,6.316,20.098,5.684,19.707,5.293z M14.891,7.941c0.038-0.025,0.073-0.046,0.104-0.062
		C14.998,7.914,15,7.954,15,8v1.293l-2,2V9.202L14.891,7.941z M7,12c0-0.552,0.448-1,1-1c1.211,0,2.907-0.495,4-1.146v2.439
		l-2.83,2.83C8.757,15.046,8.356,15,8,15c-0.552,0-1-0.448-1-1V12z M10.301,15.406L12,13.707v2.439
		C11.519,15.859,10.925,15.604,10.301,15.406z M14.994,18.12c-0.03-0.016-0.065-0.036-0.104-0.062L13,16.798v-4.091l2-2V18
		C15,18.046,14.998,18.086,14.994,18.12z"/>
</g>
<g id="nyt_x5F_exporter_x5F_info" display="none">
</g>
</svg>
